packages/brickdoc-design-icons/assets/basic/setting-config.svg

<svg xmlns="http://www.w3.org/2000/svg" fill="none" viewBox="0 0 24 24"><path fill-opacity=".01" fill="#fff" d="M24 0H0v24h24V0z"/><path stroke-linejoin="round" stroke-linecap="round" stroke-width="2" stroke="#3e3e3e" d="M20.75 5h-3M13.75 3v4M13.75 5h-11M6.75 12h-4M10.75 10v4M21.75 12h-11M20.75 19h-3M13.75 17v4M13.75 19h-11"/></svg>

<svg  viewBox="0 0 24 24" xmlns="http://www.w3.org/2000/svg" fill="none"><path fill-opacity=".01" fill="#fff" d="M24 0H0v24h24V0z"/><path stroke-linejoin="round" stroke-linecap="round" stroke-width="2" stroke="#34313c" d="M20.75 5h-3m-4-2v4m0-2h-11m4 7h-4m8-2v4m11-2h-11m10 7h-3m-4-2v4m0-2h-11"/></svg>
